X:41
T: Invirtita
O:rumania
Z: John Chambers <jc@trillian.mit.edu>
M: 7/8
L: 1/8
K: Am
"A"\
|: "Dm"{^g}a3 {g}a2 ^gf \
| agf "Am"ed cB \
| "Dm"^GA^c de f^g \
| a^gf "Am"ed cz |
| "Dm"{g}a3 {g}a2 ^gf \
| agf "Am"ed cB \
| cdc "E7"d2 B^G \
| "Am"A7 :|
"B"\
|: "Dm"^GA^c de f^g \
| a^gf "Am"ed cz \
| "Dm"a3 a2 ^gf \
| agf "Am"ed cB |
| "Dm"^GA^c de f^g \
| a^gf "Am"ef ab \
| c'ac' "E7"be ^f^g \
| "Am"a3 [e4A4] :|
"C"\
|: "G"d'3 d'c' ba \
| gab "C"c'b c'2 \
| "G"~d'2c' bg ab \
| "C"c'2d' e'b c'2 |
| "G"d'3 d'c' ba \
| gab "C"c'g ab \
| "Am"c'ac' "E7"be ^f^g \
| "Am"a3 [e4A4] :|
"D"\
|: "G"gab d'e' d'c' \
| bgb "C"~c'b c'^c' \
| "G"~d'2c' bg ab \
| "C"~c'2d' e'b c'2 |
| "G"gab d'e' d'b \
| c'bc' "C"e'g ab \
| "Am"c'ac' "E7"be ^f^g \
| "Am"a3 [e4A4] :|
